X:158
U: ~ = !turn!
%%topmargin 3cm
T:Paddy Hughes Jig
B:Traditional Irish Fiddle Tunes. Randy Miller and Jack Perron.
Z:Transcribed by Ralph Palmer
S:Na Fili
R:Jig
L:1/8
M:6/8
K:G
ABG AGA | BGE ~G3 | ABA GBd | e/2f/2gd edB |
ABG AGA | BGE G2 D | GBA G2 B | dBG B/2c/2dB ::
GBd ~g3 | {/a}gba ~g3 | GBd Pg2 d | e/2f/2gd edB|
GBd ~g3 | {/a}gba ~g3 | abg age e/2f/2gd edB :|]
